src/shared/assets/svgs/error.svg

<svg width="230" height="231" viewBox="0 0 230 231" fill="none" xmlns="http://www.w3.org/2000/svg">
<path d="M107.041 226.597L43.0191 184.005C41.4541 182.964 40.5122 181.209 40.5122 179.33V168.637L115 128.522L189.488 168.707V179.33C189.488 181.209 188.546 182.964 186.981 184.005L122.954 226.597C118.135 229.801 111.86 229.801 107.036 226.597H107.041Z" fill="#414751"/>
<path d="M106.898 213.167L41.2765 169.519C40.2848 168.861 40.2848 167.406 41.2765 166.743L115.002 117.438L188.727 166.743C189.714 167.406 189.714 168.861 188.727 169.519L123.106 213.172C118.202 216.437 111.812 216.437 106.908 213.172L106.898 213.167Z" fill="#656D77"/>
<path d="M129.144 48.1775C123.846 30.4392 119.316 15.385 116.88 7.30711C116.308 5.40958 113.629 5.41247 113.06 7.31099C110.641 15.3841 106.14 30.4155 100.856 48.0908C104.605 49.2472 109.621 49.9603 115.138 49.9603C120.654 49.9603 125.425 49.2857 129.144 48.1775Z" fill="#414751"/>
<path d="M134.588 66.4679C132.714 60.185 130.878 54.0321 129.129 48.1732C125.41 49.2813 120.505 49.9559 115.123 49.9559C109.741 49.9559 104.59 49.2476 100.842 48.0864C99.1024 53.9068 97.2763 60.0163 95.4116 66.2559C98.3796 68.9252 106.084 70.8284 115.123 70.8284C124.162 70.8284 131.461 69.0216 134.588 66.4631V66.4679Z" fill="#656D77"/>
<path d="M154.823 134.279C152.683 127.095 150.279 119.025 147.74 110.501C139.457 113.32 127.913 115.069 115.145 115.069C102.377 115.069 90.5526 113.276 82.2509 110.4C79.7165 118.89 77.317 126.936 75.1777 134.106C82.9543 138.794 97.939 141.969 115.145 141.969C132.351 141.969 146.969 138.871 154.823 134.279Z" fill="#656D77"/>
<path d="M147.745 110.502C143.544 96.4035 138.976 81.0719 134.615 66.4679C131.484 69.0264 123.953 70.8332 115.15 70.8332C106.347 70.8332 98.4065 68.93 95.4385 66.2607C91.0684 80.8937 86.4766 96.2637 82.2559 110.4C90.5576 113.277 102.227 115.069 115.15 115.069C128.072 115.069 139.462 113.32 147.745 110.502Z" fill="#414751"/>
<path d="M154.852 134.279C146.998 138.871 132.172 141.969 115.174 141.969C98.175 141.969 82.9832 138.794 75.2066 134.105C69.8054 152.217 66.0713 164.759 66.0713 164.831C66.0713 174.853 86.1265 185.292 115 185.292C143.874 185.292 163.929 174.853 163.929 164.831C163.929 164.793 160.224 152.323 154.852 134.274V134.279Z" fill="#414751"/>
<path d="M155.081 0.958984H168.488L167.331 43.1361H156.238L155.081 0.958984Z" fill="#656D77"/>
<circle cx="161.784" cy="55.6674" r="6.07344" fill="#656D77"/>
</svg>

<svg xmlns="http://www.w3.org/2000/svg" width="230" height="231" fill="none"><path fill="#414751" d="m107.041 226.597-64.022-42.592a5.62 5.62 0 0 1-2.507-4.675v-10.693L115 128.522l74.488 40.185v10.623a5.62 5.62 0 0 1-2.507 4.675l-64.027 42.592a14.38 14.38 0 0 1-15.918 0z"/><path fill="#656D77" d="m106.898 213.167-65.621-43.648a1.667 1.667 0 0 1 0-2.776l73.725-49.305 73.725 49.305a1.67 1.67 0 0 1 0 2.776l-65.621 43.653a14.62 14.62 0 0 1-16.198 0z"/><path fill="#414751" d="M129.144 48.178a16677 16677 0 0 0-12.264-40.87c-.572-1.898-3.251-1.896-3.82.003-2.419 8.073-6.92 23.105-12.204 40.78 3.749 1.156 8.765 1.87 14.282 1.87s10.287-.675 14.006-1.783"/><path fill="#656D77" d="m134.588 66.468-5.459-18.295c-3.719 1.108-8.624 1.783-14.006 1.783s-10.533-.708-14.281-1.87l-5.43 18.17c2.968 2.67 10.672 4.572 19.711 4.572s16.338-1.806 19.465-4.365zm20.235 67.811-7.083-23.778c-8.283 2.819-19.827 4.568-32.595 4.568s-24.592-1.793-32.894-4.669c-2.535 8.49-4.934 16.536-7.073 23.706 7.776 4.688 22.761 7.863 39.967 7.863s31.824-3.098 39.678-7.69"/><path fill="#414751" d="M147.745 110.502c-4.201-14.099-8.769-29.43-13.13-44.034-3.131 2.558-10.662 4.365-19.465 4.365s-16.744-1.903-19.711-4.572L82.256 110.4c8.302 2.877 19.971 4.669 32.894 4.669s24.312-1.749 32.595-4.567m7.107 23.777c-7.854 4.592-22.68 7.69-39.678 7.69-16.999 0-32.19-3.175-39.967-7.864-5.402 18.112-9.136 30.654-9.136 30.726 0 10.022 20.055 20.461 48.929 20.461s48.929-10.439 48.929-20.461c0-.038-3.705-12.508-9.077-30.557z"/><path fill="#656D77" d="M155.081.959h13.407l-1.157 42.177h-11.093z"/><circle cx="161.784" cy="55.667" r="6.073" fill="#656D77"/></svg>
